src/assets/img/icons/catalog.svg

<svg width="52" height="48" viewBox="0 0 52 48" fill="none" xmlns="http://www.w3.org/2000/svg">
<g clip-path="url(#clip0_4_613)">
<path d="M51.486 12H0.514C0.447025 11.9995 0.380603 12.0122 0.318525 12.0373C0.256447 12.0624 0.199929 12.0996 0.152199 12.1466C0.10447 12.1935 0.0664625 12.2495 0.040348 12.3112C0.0142335 12.3728 0.000523232 12.439 0 12.506L0 47.494C0.000523232 47.561 0.0142335 47.6272 0.040348 47.6889C0.0664625 47.7506 0.10447 47.8065 0.152199 47.8535C0.199929 47.9005 0.256447 47.9376 0.318525 47.9627C0.380603 47.9879 0.447025 48.0005 0.514 48H51.486C51.553 48.0005 51.6194 47.9879 51.6815 47.9627C51.7436 47.9376 51.8001 47.9005 51.8478 47.8535C51.8955 47.8065 51.9335 47.7506 51.9597 47.6889C51.9858 47.6272 51.9995 47.561 52 47.494V12.506C51.9995 12.439 51.9858 12.3728 51.9597 12.3112C51.9335 12.2495 51.8955 12.1935 51.8478 12.1466C51.8001 12.0996 51.7436 12.0624 51.6815 12.0373C51.6194 12.0122 51.553 11.9995 51.486 12ZM2.849 45.192V14.808H49.149V45.192H2.849Z" fill="black"/>
<path d="M2.41406 11H47.5861C47.9839 11 48.3654 10.842 48.6467 10.5607C48.928 10.2794 49.0861 9.89782 49.0861 9.5C49.0861 9.10218 48.928 8.72065 48.6467 8.43934C48.3654 8.15804 47.9839 8 47.5861 8H2.41406C2.01624 8 1.63471 8.15804 1.3534 8.43934C1.0721 8.72065 0.914062 9.10218 0.914062 9.5C0.914062 9.89782 1.0721 10.2794 1.3534 10.5607C1.63471 10.842 2.01624 11 2.41406 11Z" fill="black"/>
<path d="M5.42407 7H45.5721C45.9699 7 46.3514 6.84196 46.6327 6.56066C46.914 6.27936 47.0721 5.89782 47.0721 5.5C47.0721 5.10218 46.914 4.72065 46.6327 4.43934C46.3514 4.15804 45.9699 4 45.5721 4H5.42407C5.02625 4 4.64472 4.15804 4.36341 4.43934C4.08211 4.72065 3.92407 5.10218 3.92407 5.5C3.92407 5.89782 4.08211 6.27936 4.36341 6.56066C4.64472 6.84196 5.02625 7 5.42407 7Z" fill="black"/>
<path d="M8.40796 3H42.592C42.9775 2.98747 43.3423 2.82248 43.6062 2.54125C43.8702 2.26002 44.0118 1.88553 44 1.5C44.0118 1.11447 43.8702 0.739983 43.6062 0.458754C43.3423 0.177525 42.9775 0.0125335 42.592 0L8.40796 0C8.02245 0.0125335 7.65766 0.177525 7.39368 0.458754C7.1297 0.739983 6.9881 1.11447 6.99996 1.5C6.9881 1.88553 7.1297 2.26002 7.39368 2.54125C7.65766 2.82248 8.02245 2.98747 8.40796 3Z" fill="black"/>
</g>
<defs>
<clipPath id="clip0_4_613">
<rect width="52" height="48" fill="white"/>
</clipPath>
</defs>
</svg>

<svg width="52" height="48" fill="none" xmlns="http://www.w3.org/2000/svg"><g clip-path="url(#a)" fill="#000"><path d="M51.486 12H.514a.511.511 0 0 0-.514.506v34.988A.51.51 0 0 0 .514 48h50.972a.51.51 0 0 0 .514-.506V12.506a.51.51 0 0 0-.514-.506ZM2.849 45.192V14.808h46.3v30.384h-46.3ZM2.414 11h45.172a1.5 1.5 0 1 0 0-3H2.414a1.5 1.5 0 0 0 0 3ZM5.424 7h40.148a1.5 1.5 0 0 0 0-3H5.424a1.5 1.5 0 0 0 0 3ZM8.408 3h34.184A1.456 1.456 0 0 0 44 1.5 1.456 1.456 0 0 0 42.592 0H8.408A1.456 1.456 0 0 0 7 1.5 1.456 1.456 0 0 0 8.408 3Z"/></g><defs><clipPath id="a"><path fill="#fff" d="M0 0h52v48H0z"/></clipPath></defs></svg>
